!!!COM: Palestrina, Giovanni Perluigi da
!!!OPR: Missa Ecce ego Joannes
!!!OMD: Credo
!!!OTL: First Section
**kern	**kern	**kern	**kern	**kern	**kern
*Ibass	*Ibarit	*Itenor	*Itenor	*Icalto	*Icant
!Bassus	!Baritone	!Tenor 2	!Tenor 1	!Altus	!Cantus
*clefF4	*clefF4	*clefGv2	*clefGv2	*clefG2	*clefG2
*k[]	*k[]	*k[]	*k[]	*k[]	*k[]
*G:mix	*G:mix	*G:mix	*G:mix	*G:mix	*G:mix
*M4/2	*M4/2	*M4/2	*M4/2	*M4/2	*M4/2
=1	=1	=1	=1	=1	=1
0r	0d	0f#	0r	0a	0dd
=2	=2	=2	=2	=2	=2
0r	1G	1g	0r	1b	1dd
.	1d	1f#	.	1a	1dd
=3	=3	=3	=3	=3	=3
0r	1.c	4g	0r	2cc	1.ee
.	.	4f	.	.	.
.	.	4e	.	4c	.
.	.	4d	.	4d	.
.	.	2c	.	4e	.
.	.	.	.	4f	.
.	2B	2d	.	2g	2dd
=4	=4	=4	=4	=4	=4
0r	0A	1e	0r	2.a	0cc
.	.	.	.	8g	.
.	.	.	.	8f	.
.	.	1c	.	2e	.
.	.	.	.	2f#	.
=5	=5	=5	=5	=5	=5
1r	1G	1d	1r	1g	1b
1G	1B	1r	1d	1g	1dd
=6	=6	=6	=6	=6	=6
2C	2c	0r	2e	2g	2cc
2C	2c	.	2c	2g	2ee
1G	1B	.	1d	1g	2.dd
.	.	.	.	.	4ee
=7	=7	=7	=7	=7	=7
1.F	4c	0r	2A	1.a	1ff
.	4B	.	.	.	.
.	4A	.	4F	.	.
.	4G	.	4G	.	.
.	2F	.	4A	.	2cc
.	.	.	4B	.	.
2E	2G	.	2c	2g	2ee
=8	=8	=8	=8	=8	=8
0D	1A	0r	2.d	1f	0ff
.	.	.	8c	.	.
.	.	.	8B	.	.
.	1F	.	2A	1d	.
.	.	.	2B	.	.
=9	=9	=9	=9	=9	=9
2.C	2G	2r	2c	1e	1ee
.	1c	1e	1g	.	.
4D	.	.	.	.	.
4E	.	.	.	1r	1r
4F	.	.	.	.	.
2G	2B	2d	2g	.	.
=10	=10	=10	=10	=10	=10
1C	1c	1e	1g	0r	0r
1r	2B	2d	2g	.	.
.	2A	2c	2f	.	.
=11	=11	=11	=11	=11	=11
0r	2G	2B	2e	2r	1r
.	2F	2A	2d	1a	.
.	1E	1B	1e	.	2r
.	.	.	.	2g#	[2ee
=12	=12	=12	=12	=12	=12
0r	0r	2r	1f	2.a	2ee]
.	.	1a	.	.	2dd
.	.	.	.	4b	.
.	.	.	1e	2cc	[1ee
.	.	2g#	.	2b	.
=13	=13	=13	=13	=13	=13
0r	0r	2a	0r	4cc	2ee]
.	.	.	.	4b	.
.	.	2d	.	4a	2dd
.	.	.	.	4g	.
.	.	2f	.	2a	2cc
.	.	2g	.	[2g	2b
=14	=14	=14	=14	=14	=14
1r	1r	1d	1r	2g]	1a
.	.	.	.	2f#	.
2r	2r	2r	2r	1g	1b
[2G	[2B	[2g	[2d	.	.
=15	=15	=15	=15	=15	=15
2G]	2B]	2g]	2d]	2.b	2.dd
2G	2B	2g	2d	.	.
.	.	.	.	4b	4dd
2G	2B	2g	2d	2b	2dd
2G	2d	2g	2G	2b	2dd
=16	=16	=16	=16	=16	=16
1.C	1.c	1.e	1.g	2cc	1.ee
.	.	.	.	2c	.
.	.	.	.	4e	.
.	.	.	.	4f	.
2C	2c	2c	2g	4g	2ee
.	.	.	.	4a	.
=17	=17	=17	=17	=17	=17
1G	1B	1d	2g	4b	0dd
.	.	.	.	4cc	.
.	.	.	2.d	2b	.
[1D	[1d	2.f	.	[1a	.
.	.	.	4e	.	.
.	.	.	4f	.	.
.	.	4e	4g	.	.
=18	=18	=18	=18	=18	=18
1D]	1d]	1d	2a	1a]	1ff
.	.	.	1A	.	.
1A	1c#	1e	.	1a	1ee
.	.	.	4a	.	.
.	.	.	4g	.	.
=19	=19	=19	=19	=19	=19
0D	1d	4a	4f	0a	0dd
.	.	4g	4e	.	.
.	.	4f	4d	.	.
.	.	4e	4c#	.	.
.	[1A	1f	1d	.	.
=20	=20	=20	=20	=20	=20
2AA	1A]	2e	2c#	2a	0ee
2.A	.	2.e	2.c#	2.a	.
.	1r	.	.	.	.
4A	.	4e	4c#	4a	.
2A	.	2e	2c#	2a	.
=21	=21	=21	=21	=21	=21
2D	0r	2f	2d	2a	0r
2G	.	2g	2d	2b	.
2F	.	2a	1f	2.cc	.
4F	.	4A	.	.	.
4G	.	4B	.	4b	.
=22	=22	=22	=22	=22	=22
4A	0r	4c	1e	2a	0r
4B	.	4d	.	.	.
2c	.	1e	.	2g	.
2d	.	.	2f	2f	.
2B-	.	[2d	2g	4e	.
.	.	.	.	4d	.
=23	=23	=23	=23	=23	=23
1A	1r	2d]	1a	2e	1r
.	.	2c#	.	2e	.
1D	2r	1d	2r	2f	2r
.	[2d	.	[2f	[2a	[2dd
=24	=24	=24	=24	=24	=24
0r	2d]	0r	2f]	2a]	2dd]
.	2d	.	2f	2a	2dd
.	2A	.	2e	2a	2cc#
.	2d	.	2f	2a	2dd
=25	=25	=25	=25	=25	=25
1r	1c	1r	1g	1cc	1ee
2r	2G	2r	1g	2b	1dd
[2G	[2B	[2d	.	[2g	.
=26	=26	=26	=26	=26	=26
2G]	2B]	2d]	0r	2g]	0r
2G	2B	2d	.	2g	.
2D	2A	2d	.	2f#	.
2G	2B	2d	.	2g	.
=27	=27	=27	=27	=27	=27
1F	2c	2f	0r	2.a	0r
.	4A	4c	.	.	.
.	4B	4d	.	8g	.
.	.	.	.	8a	.
2.C	4c	4e	.	2g	.
.	4d	4f	.	.	.
.	[2e	[2g	.	4c	.
4BB	.	.	.	4d	.
=28	=28	=28	=28	=28	=28
4C	4e]	4g]	0r	4e	0r
4D	4d	4f	.	4f	.
4E	1c	1e	.	4g	.
4F	.	.	.	4a	.
2G	.	.	.	2g	.
2G	2B	2d	.	2g	.
=29	=29	=29	=29	=29	=29
1C	2c	2e	2r	1g	2r
.	2c	2g	2e	.	2ee
1r	2c	2g	2c	1r	2ee
.	2B	2g	2d	.	2dd
=30	=30	=30	=30	=30	=30
1r	1A	1a	2e	1r	1cc
.	.	.	2f#	.	.
2r	2G	1d	2g	2r	2b
2G	2B	.	2d	2g	2b
=31	=31	=31	=31	=31	=31
2G	2B	0r	2d	2g	2dd
2F	2A	.	2d	2a	2dd
2E	2B	.	2G	2g	2ee
2E	2c#	.	2G	2g	2ee
=32	=32	=32	=32	=32	=32
1D	2d	2r	1A	1f	2a
.	1d	1f	.	.	1a
1r	.	.	1r	2d	.
.	2c	2e	.	2e	2a
=33	=33	=33	=33	=33	=33
1r	1B-	1d	1r	2f	1dd
.	.	.	.	2g	.
2r	1A	2e	2r	2a	2cc
2A	.	4c	2e	2a	2ee
.	.	4d	.	.	.
=34	=34	=34	=34	=34	=34
2A	0r	4e	1e	2cc	2a
.	.	4f	.	.	.
2G	.	2g	.	2.b	2b
1F	.	2a	1A	.	2cc
.	.	.	.	4a	.
.	.	2A	.	[2a	2dd
=35	=35	=35	=35	=35	=35
1E	0r	1e	1B	2a]	[0ee
.	.	.	.	2g#	.
2r	.	1c	2A	2a	.
[2A	.	.	[2e	[2cc	.
=36	=36	=36	=36	=36	=36
2A]	0r	2A	2e]	2cc]	1ee]
2G#	.	2B	2e	2b	.
2A	.	2c	2e	2a	1r
2F	.	2A	2d	2a	.
=37	=37	=37	=37	=37	=37
1E	1r	2B	1e	1g	1r
.	.	2c#	.	.	.
1D	2r	1d	1A	1f	2r
.	[2d	.	.	.	[2a
=38	=38	=38	=38	=38	=38
0r	2d]	2f	0r	2d	2a]
.	2c#	2e	.	2A	2a
.	2d	2f	.	2.d	2a
.	2B	2d	.	.	2g
.	.	.	.	4d	.
=39	=39	=39	=39	=39	=39
0r	2A	2c	0r	2e	2a
.	2G	2d	.	1g	2b
.	1A	1c	.	.	1cc
.	.	.	.	2f#	.
=40	=40	=40	=40	=40	=40
0r	1G	0d	2r	2g	2b
.	.	.	1g	1b	1dd
.	1r	.	.	.	.
.	.	.	2f#	2a	2dd
=41	=41	=41	=41	=41	=41
0r	0r	2r	2g	2b	2dd
.	.	2g	2e	2g	2cc
.	.	2f#	2d	2a	2dd
.	.	2g	[2c	[2cc	[2ee
=42	=42	=42	=42	=42	=42
0r	0r	2e	2c]	2cc]	4ee]
.	.	.	.	.	4dd
.	.	2f	2F	2a	1cc
.	.	2d	1G	[1g	.
.	.	2d	.	.	2b
=43	=43	=43	=43	=43	=43
1C	2r	2e	2r	1g]	1cc
.	2c	2e	2g	.	.
2F	2c	2f	2a	1r	1r
2G	2B	2d	2g	.	.
=44	=44	=44	=44	=44	=44
2C	2c	2e	1g	0r	0r
1c	1e	4c	.	.	.
.	.	4d	.	.	.
.	.	4e	2c	.	.
.	.	4f	.	.	.
2B	2d	[2g	2d	.	.
=45	=45	=45	=45	=45	=45
1A	1c	2g]	2e	1r	1r
.	.	2f#	4d	.	.
.	.	.	4c	.	.
1G	1d	2g	2B	2r	2r
.	.	2g	2G	2b	2dd
=46	=46	=46	=46	=46	=46
0r	0r	2g	2c	2cc	2ee
.	.	2f#	2d	2a	2dd
.	.	2g	2G	2b	2dd
.	.	[2c	[2g	[2cc	[2ee
=47	=47	=47	=47	=47	=47
0r	0r	2c]	2g]	2cc]	2ee]
.	.	2d	2f	2a	2dd
.	.	1A	1e	1a	1cc#
=48	=48	=48	=48	=48	=48
1D	0r	1d	2f#	2a	0dd
.	.	.	2f#	2a	.
1G	.	2r	[1g	[1b	.
.	.	2d	.	.	.
=49	=49	=49	=49	=49	=49
1E	1G	1g	2g]	2b]	0r
.	.	.	2.e	1g	.
1C	1c	1e	.	.	.
.	.	.	4d	.	.
.	.	.	4c	2e	.
.	.	.	4B	.	.
=50	=50	=50	=50	=50	=50
1F	2c	2c	1A	4a	2r
.	.	.	.	4g	.
.	2A	2.c	.	4f	2cc
.	.	.	.	4e	.
1D	1F	.	2r	4f	1ff
.	.	8B	.	4e	.
.	.	8A	.	.	.
.	.	2B	2d	2d	.
=51	=51	=51	=51	=51	=51
0C	2G	1c	1g	1e	2ee
.	2G	.	.	.	1gg
.	1c	2r	1e	2r	.
.	.	2e	.	2g	[2ee
=52	=52	=52	=52	=52	=52
0r	1A	2e	1c	1cc	4ee]
.	.	.	.	.	4dd
.	.	1A	.	.	4ee
.	.	.	.	.	4cc
.	1F	.	2.f	2a	4dd
.	.	.	.	.	4cc
.	.	2A	.	2a	[2cc
.	.	.	4e	.	.
=53	=53	=53	=53	=53	=53
0r	1G	4B	1d	1g	2cc]
.	.	4G	.	.	.
.	.	2g	.	.	2b
.	1C	1e	1c	1g	1cc
=54	=54	=54	=54	=54	=54
1r	1r	1r	1r	1r	1r
[1C	[1c	[1e	[1g	[1cc	[1ee
=55	=55	=55	=55	=55	=55
1C]	1c]	1e]	1g]	1cc]	1ee]
1E	[1G	[1g	2.e	1b	1ee
.	.	.	8d	.	.
.	.	.	8c	.	.
=56	=56	=56	=56	=56	=56
1G	2G]	2g]	2B	1b	1dd
.	2B	1d	2G	.	.
2.D	1d	.	2A	1a	[1ff
.	.	[2f	2d	.	.
4E	.	.	.	.	.
=57	=57	=57	=57	=57	=57
1F	1A	2f]	2c	1a	1ff]
.	.	2c	4F	.	.
.	.	.	4G	.	.
1F	[1c	2.c	4A	1a	1ff
.	.	.	4B	.	.
.	.	.	[2c	.	.
.	.	4d	.	.	.
=58	=58	=58	=58	=58	=58
0C	1c]	4e	4c]	1g	1ee
.	.	4f	4d	.	.
.	.	2g	4e	.	.
.	.	.	4f	.	.
.	2r	1e	2g	2r	2r
.	2c	.	2g	2cc	2ee
=59	=59	=59	=59	=59	=59
0r	1c	0r	1g	1cc	1ee
.	2F	.	2a	2cc	2ff
.	2G	.	[2g	2b-	2dd
=60	=60	=60	=60	=60	=60
0r	2.A	0r	2g]	1a	0cc
.	.	.	1f	.	.
.	4B	.	.	.	.
.	1c	.	.	1g	.
.	.	.	2e	.	.
=61	=61	=61	=61	=61	=61
2r	1F	2r	2f	1a	2cc
1F	.	1a	1f	.	1cc
.	1r	.	.	1r	.
2F	.	2a	2f	.	2cc
=62	=62	=62	=62	=62	=62
1c	0r	2g	1e	0r	1cc
.	.	1a	.	.	.
1d	.	.	1f#	.	1a
.	.	[2d	.	.	.
=63	=63	=63	=63	=63	=63
1G	0r	4d]	2.g	0r	1b-
.	.	8e	.	.	.
.	.	8f	.	.	.
.	.	1g	.	.	.
.	.	.	4f	.	.
1G	.	.	2e	.	1b-
.	.	2f	[2d	.	.
=64	=64	=64	=64	=64	=64
0A	1r	0e	2d]	0r	0a
.	.	.	4c#	.	.
.	.	.	4B	.	.
.	[1A	.	1c#	.	.
=65	=65	=65	=65	=65	=65
0D	1A]	0f#	0d	0a	1r
.	[1d	.	.	.	1a
=66	=66	=66	=66	=66	=66
0G	1d]	0g	2.B	0d	2.b
.	.	.	4A	.	4cc
.	[1B	.	4G	.	1dd
.	.	.	4A	.	.
.	.	.	4B	.	.
.	.	.	4c	.	.
=67	=67	=67	=67	=67	=67
1G	1B]	2g	2d	1d	1dd
.	.	4g	1G	.	.
.	.	4f	.	.	.
[1C	1c	4e	.	[1g	[1ee
.	.	4d	.	.	.
.	.	4c	[2g	.	.
.	.	4B	.	.	.
=68	=68	=68	=68	=68	=68
1C]	0G	1c	4g]	1g]	1ee]
.	.	.	4f	.	.
.	.	.	4e	.	.
.	.	.	4d	.	.
1C	.	1c	2e	1g	1cc
.	.	.	2e	.	.
=69	=69	=69	=69	=69	=69
0G	0G	0B	0d	0g	0dd
*-	*-	*-	*-	*-	*-
!!!CDT: 1525/^1526/-1594/2/2
!!!OCY: Italia
!!!AGN: Mass (Parody)
!!!AST: renaissance, vocal
!!!ASW: Motet (Unidentified)
!!!PWK: Masses, Book 12
!!!RNB: Cadence finals: D
!!!YOR: Le Opere Complete, v. 29, p. 197
!!!YOO: Rome, Italy: Fratelli Scalera
!!!END: 1992//
!!!EED: John Miller
!!!YEC: Copyright 2000, John Miller
!!!YEN: United States of America
!!!YEM: Rights to all derivative electronic formats reserved.
!!!YEM: Refer to licensing agreement for further details.
!!!YEM: This file must be accompanied by the licensing agreement.
!!!YEM: A copy of the licensing agreement may be found at http://www.music-cog.ohio-state.edu/HumdrumDatabases/Palestrina/license.txt
!!!EMD: converted to Humdrum by Bret Aarden
